X: 1
T: Barnyards of Delgaty
Z: John Chambers <jc:trillian.mit.edu>
M: C|
L: 1/4
K: A
 [| "A"c>B AE | "D"FA "A"FE | c>B "F#m"AE | "Bm"FA "E7"B2 \
  | "A"c>B AE | "D"FA "A"FE | EE "E7"e>d | cB "A"A2 ||
 || "A"e>A AA | cB "(E7)"cf |  "A"e>A "F#m"AA | "Bm"ce "E7"B2 \
  | "A"e>A AA | cB ce |  EE "E7"e>d | cB "A"A2 |]
